X:462
T:
R:vals
S:Efter »Florsen» i Burs.
O:Gotland, Burs
M:3/4
L:1/8
K:F
F3 AcB|Ac f2 f2 |(ef) (gc) (de)|fg a2 f2|F3 AcB|Ac f2 f2 |(ef) (gc) (de)|f6::(af) (ef) c2|(cB) (AB) G2|(FE) (DC) (DE)|
FG AB c2|(af) (ef) c2|(cB) (AB) G2|(FE) (DC) (DE)|F6:|f4 g2|a2 d2 b2|(ag) (ef) (ga)|f2 A2 c2|cB G2 B2|AG F2 F2|EF G2 C2|
f4 g2|a2 d2 b2|(ag) (ef) (ga)|f2 A2 c2|cB G2 B2|AG F2 F2|EF G2 C2|F6:|

